X: 24874
T: Magic Serum, The
R: jig
M: 6/8
K: Gmajor
|:D|GBd cde|def g2g|fde fed|cAB cBA|
GBd cde|def gag|fde fed|cBA G2:|
|:E||FGA D2F|GAB D2D|~E3 GFE|DGB dBG|
FGA D2F|GAB D2D|EFG FGA|1 BAG GF:|2 BdB G2||

